remix/Device/airplay-line.svg

<svg viewBox="0 0 24 24" fill="currentColor" xmlns="http://www.w3.org/2000/svg"><path d="M12.4 13.5333L17.4 20.2C17.5657 20.4209 17.5209 20.7343 17.3 20.9C17.2135 20.9649 17.1082 21 17 21H7C6.72386 21 6.5 20.7761 6.5 20.5C6.5 20.3918 6.53509 20.2865 6.6 20.2L11.6 13.5333C11.7657 13.3124 12.0791 13.2676 12.3 13.4333C12.3379 13.4618 12.3716 13.4954 12.4 13.5333ZM12 16.33L10 19H14L12 16.33ZM18 19V17H20V5H4V17H6V19H2.9918C2.44405 19 2 18.5554 2 17.9991V4.00087C2 3.44811 2.45531 3 2.9918 3H21.0082C21.556 3 22 3.44463 22 4.00087V17.9991C22 18.5519 21.5447 19 21.0082 19H18Z"/></svg>

<svg viewBox="0 0 24 24" xmlns="http://www.w3.org/2000/svg"><path fill="none" d="M0 0h24v24H0Z"/><path d="M12.4 13.533l5 6.667v0c.16.22.12.53-.1.7 -.09.06-.2.1-.3.1H7v0c-.28 0-.5-.23-.5-.5 0-.11.03-.22.1-.3l5-6.67v0c.16-.23.47-.27.7-.1 .03.02.07.06.1.1Zm-.4 2.79l-2 2.67h4l-2-2.67Zm6 2.67v-2h2v-12H4v12h2v2H2.99v0c-.55-.01-1-.45-1-1 0-.01 0-.01 0-.01v-14c0-.552.45-1 .992-1h18.01c.54 0 .99.44.99 1v14c0 .55-.46 1-1 1h-3.01Z"/></svg>
